src/assets/keybase.svg

<svg fill="none" height="24" viewBox="0 0 24 24" width="24" xmlns="http://www.w3.org/2000/svg"><path d="m11.9998 2.06472c-6.3307 0-11.462691 5.13198-11.462691 11.46268 0 2.1856.611961 4.2282 1.673411 5.9662l2.99462-3.1796 15.15696.0947-.1097 5.0732c1.9874-2.0614 3.2101-4.865 3.2101-7.9545 0-6.3307-5.132-11.46268-11.4627-11.46268z" fill="#33a0ff"/><path d="m6.81831 5.3318c-.55866-.03424-.98679-.51696-.95427-1.0762l.0758-1.22465c.03324-.53573.48-.95555 1.01688-.95555.02006 0 .04027.00057.06047.00186l1.22393.0758c.2708.01647.51969.13784.69994.34187.18053.20404.27052.46653.25318.73877l-.07508 1.21992c-.00444.07049-.01863.12637-.02737.15689l-.04356.21307-.80539.59634z" fill="#3dcc8e"/><path d="m6.95665 1.46014c-.86114 0-1.57741.67315-1.63071 1.53256l-.0758 1.2225-.00014.00229-.00015.00215c-.05215.89681.63475 1.67097 1.53113 1.72585l1.2.07422.44748.02765.36036-.26679.43586-.32253.3787-.28041.08698-.42512c.01719-.06519.03582-.15303.04255-.26049l.07508-1.22106c.02751-.4363-.11706-.85684-.40678-1.18438-.28843-.3264-.68776-.52127-1.12377-.54778l-1.22049-.07565h-.00172l-.00186-.00014c-.0321-.00187-.06463-.00287-.09672-.00287zm.91386 2.66808.04499-.72716-.72731-.04499-.04513.72731zm-.91386-1.43799c.00802 0 .01619.00029.02436.00072l1.22192.07579c.10703.00645.20575.05445.27697.13512.07164.08095.10732.18483.10044.29244l-.07523 1.22135c-.00114.01891-.00874.03553-.01232.05359l-.43587.32267-1.20071-.07422c-.22152-.01361-.39117-.20489-.37827-.42655l.0758-1.22236c.01318-.21334.19013-.37855.40291-.37855z" fill="#282828"/><path d="m11.9998 8.00577c-4.78598 0-8.66582 3.87983-8.66582 8.66583 0 1.7797.53674 3.4337 1.45677 4.8098h14.76605c.7772-1.4195 1.1088-3.1002 1.1088-4.8098 0-4.4295-3.8799-8.66583-8.6658-8.66583z" fill="#fff"/><g fill="#282827"><path d="m11.9997 7.39114c-5.11756 0-9.28095 4.16336-9.28095 9.28086 0 1.7596.49232 3.4065 1.34629 4.8099h1.48256c-1.0037-1.3428-1.59862-3.0082-1.59862-4.8099 0-4.4392 3.61147-8.05077 8.05072-8.05077 2.1085 0 4.1281.88277 5.6866 2.48567 1.5025 1.545 2.3642 3.5735 2.3642 5.5651 0 1.3637-.2253 3.2168-1.2043 4.8099h1.404c.6776-1.3639 1.0304-2.9946 1.0304-4.8099 0-2.3091-.9885-4.6501-2.7123-6.4228-1.7921-1.84304-4.1249-2.85806-6.5686-2.85806z"/><path d="m10.2497 19.1876c0 .4595-.37235.8319-.83186.8319s-.8319-.3724-.8319-.8319.37239-.8319.8319-.8319.83186.3724.83186.8319z"/><path d="m15.4128 19.1876c0 .4595-.3724.8319-.8319.8319s-.8319-.3724-.8319-.8319.3724-.8319.8319-.8319.8319.3724.8319.8319z"/></g><path d="m2.54492 18.8574 4.61775-4.8974-1.11146 3.4845c3.60516-2.6235 7.38989-2.2087 10.05479-1.4261 2.8286.8305 4.8089-1.6677 2.8703-4.3326-.9212-1.2665-2.1848-2.31805-3.6201-2.9558-3.7645-1.67227-7.54933-.69722-10.1025 1.8819-2.70462 2.7321-2.70878 5.7624-2.70878 8.2455z" fill="#ff6f21"/><path d="m11.5658 8.51801c-.536 0-1.0683.05345-1.59146.16105-1.59546.32812-3.07672 1.14613-4.28375 2.36544-2.00496 2.0253-2.42163 4.1991-2.50817 6.2399l5.38789-5.7143-1.42639 4.4716c2.68055-1.4015 5.74548-1.6088 9.13508-.6136 1.0786.3167 2.0562.0767 2.5516-.6262.5088-.7223.3772-1.752-.3519-2.7544-.8714-1.1978-2.0691-2.17632-3.3725-2.75547-1.156-.51353-2.357-.77402-3.5404-.77402zm-9.63611 11.88819v-1.5488c0-2.5673 0-5.7622 2.88659-8.6783 1.37839-1.39229 3.0763-2.32764 4.91018-2.70491 1.93064-.39718 3.96354-.15732 5.87924.69364 1.4977.66541 2.8714 1.78631 3.8678 3.15597 1.0378 1.4268 1.1768 3.031.3626 4.1864-.7959 1.1298-2.3279 1.5607-3.9037 1.0982-3.6343-1.0672-6.83724-.6186-9.51951 1.3334l-1.51881 1.1051.86042-2.6973z" fill="#282827"/><path d="m14.2119 7.54461c-.5475 1.42653-2.135 2.22304-3.606 1.80895-1.65721-.46667-2.53225-1.79849-2.32219-3.48781.20905-1.68 1.34428-3.15295 2.65289-4.968641-1.07491 2.288091-.1618 2.502451.1271 2.490981.2854-.01132.7021.0374 1.2951.23413 1.6158.53631 2.47 2.31503 1.8531 3.92239z" fill="#ff6f21"/><path d="m9.96908 3.3491c-.56769.89008-.96631 1.7174-1.0752 2.59257-.17237 1.38598.52986 2.44012 1.87862 2.81982 1.1709.3297 2.4292-.30161 2.8651-1.43713.2362-.61584.2116-1.28196-.0694-1.87573-.2812-.59434-.7796-1.03565-1.4033-1.24255-.5473-.18169-.8881-.21049-1.0769-.20332-.424.01662-.8153-.18083-1.046-.52872-.0266-.04012-.051-.08167-.07292-.12494zm1.42952 6.729c-.3189 0-.6412-.0428-.9596-.13251-.95508-.26895-1.71835-.80053-2.20709-1.53729-.48731-.73447-.68046-1.63988-.55881-2.61851.21493-1.72757 1.27967-3.19938 2.5125-4.903593.0831-.114913.167-.230973.2519-.348609l1.0555.621132c-.5209 1.10916-.4612 1.51981-.4338 1.61352.4191-.01275.9214.07651 1.4931.26622.9459.31393 1.7015.98292 2.1278 1.88404.4261.90039.4637 1.90997.1059 2.8426-.5428 1.41406-1.9266 2.313-3.3874 2.313z" fill="#282827"/><path d="m12.6572 12.9927c-.2153 0-.4171-.0957-.5532-.2625l-.4138-.5068c-.2398-.2937-.2055-.7235.0718-.9759-.0896-.0439-.1697-.1071-.2347-.1867l-.0944-.1156c-.2485-.3042-.2031-.7537.101-1.00203l.0595-.04857-.6061-.74393c-.2696-.33013-.2201-.81858.1103-1.08853.1385-.1129.3122-.17466.4896-.17466.233 0 .4515.10345.5992.28399l2.5853 3.18193c.2691.3297.2196.8181-.1108 1.0881-.0911.0745-.2003.1281-.3152.1546-.057.0131-.1158.0197-.1744.0197-.2014 0-.3919-.0772-.5353-.2146l-.5274.4306c-.1271.1037-.2875.1609-.4514.1609z" fill="#3dcc8e"/><path d="m12.5767 7.85238c-.2438-.29774-.6041-.46839-.9886-.46839-.2928 0-.5794.10202-.8068.28714-.5465.44647-.6279 1.25244-.1827 1.79778l.3367.41337c-.2473.42522-.2205.97772.1087 1.38082l.0633.0777c-.1489.3927-.0903.8525.194 1.2005l.4138.507c.232.2842.5757.4473.9429.4473.2797 0 .5531-.0973.7698-.2742l.2478-.2024c.1551.0652.3234.0999.4967.0999.0965 0 .1933-.011.2874-.0328.1897-.0437.3697-.132.5205-.2552.5452-.4455.6266-1.2514.1816-1.7968l-2.5827-3.17871zm-.9886.53803c.0784 0 .1562.0341.2098.09973l2.5841 3.18036c.0946.1159.0773.2864-.0385.381-.0334.0272-.0711.0449-.1102.054-.0201.0047-.0405.007-.061.007-.0786 0-.1564-.034-.2099-.0996l-.2574-.3171-.9137.7458c-.0391.0321-.0863.0476-.1333.0476-.061 0-.1216-.0265-.1633-.0775l-.4138-.5068c-.0728-.0892-.0595-.2204.0297-.2932l.9181-.7495-.3751-.4625-.4542.3711c-.0373.0302-.082.045-.1264.045-.0579 0-.1153-.0251-.1549-.0734l-.0945-.1159c-.073-.0893-.0598-.2208.0295-.2937l.4489-.36656-.9238-1.1338c-.0945-.11577-.0772-.28628.0386-.38085.0506-.04112.1112-.06118.1713-.06118z" fill="#282828"/></svg>

<svg width="24" height="24" viewBox="0 0 24 24" fill="none" xmlns="http://www.w3.org/2000/svg">
    <path
        d="M11.9998 2.06472C5.6691 2.06472 0.537109 7.1967 0.537109 13.5274C0.537109 15.713 1.14907 17.7556 2.21052 19.4936L5.20514 16.314L20.3621 16.4087L20.2524 21.4819C22.2398 19.4205 23.4625 16.6169 23.4625 13.5274C23.4625 7.1967 18.3305 2.06472 11.9998 2.06472Z"
        fill="#33A0FF" />
    <path
        d="M6.81831 5.3318C6.25965 5.29756 5.83152 4.81484 5.86404 4.2556L5.93984 3.03095C5.97308 2.49522 6.41984 2.0754 6.95672 2.0754C6.97678 2.0754 6.99699 2.07597 7.01719 2.07726L8.24112 2.15306C8.51192 2.16953 8.76081 2.2909 8.94106 2.49493C9.12159 2.69897 9.21158 2.96146 9.19424 3.2337L9.11916 4.45362C9.11472 4.52411 9.10053 4.57999 9.09179 4.61051L9.04823 4.82358L8.24284 5.41992L6.81831 5.3318Z"
        fill="#3DCC8E" />
    <path
        d="M6.95665 1.46014C6.09551 1.46014 5.37924 2.13329 5.32594 2.9927L5.25014 4.2152L5.25 4.21749L5.24985 4.21964C5.1977 5.11645 5.8846 5.89061 6.78098 5.94549L7.98098 6.01971L8.42846 6.04736L8.78882 5.78057L9.22468 5.45804L9.60338 5.17763L9.69036 4.75251C9.70755 4.68732 9.72618 4.59948 9.73291 4.49202L9.80799 3.27096C9.8355 2.83466 9.69093 2.41412 9.40121 2.08658C9.11278 1.76018 8.71345 1.56531 8.27744 1.5388L7.05695 1.46315H7.05523L7.05337 1.46301C7.02127 1.46114 6.98874 1.46014 6.95665 1.46014ZM7.87051 4.12822L7.9155 3.40106L7.18819 3.35607L7.14306 4.08338L7.87051 4.12822ZM6.95665 2.69023C6.96467 2.69023 6.97284 2.69052 6.98101 2.69095L8.20293 2.76674C8.30996 2.77319 8.40868 2.82119 8.4799 2.90186C8.55154 2.98281 8.58722 3.08669 8.58034 3.1943L8.50511 4.41565C8.50397 4.43456 8.49637 4.45118 8.49279 4.46924L8.05692 4.79191L6.85621 4.71769C6.63469 4.70408 6.46504 4.5128 6.47794 4.29114L6.55374 3.06878C6.56692 2.85544 6.74387 2.69023 6.95665 2.69023Z"
        fill="#282828" />
    <path
        d="M11.9998 8.00577C7.21382 8.00577 3.33398 11.8856 3.33398 16.6716C3.33398 18.4513 3.87072 20.1053 4.79075 21.4814H19.5568C20.334 20.0619 20.6656 18.3812 20.6656 16.6716C20.6656 12.2421 16.7857 8.00577 11.9998 8.00577Z"
        fill="white" />
    <path
        d="M11.9997 7.39114C6.88214 7.39114 2.71875 11.5545 2.71875 16.672C2.71875 18.4316 3.21107 20.0785 4.06504 21.4819H5.5476C4.5439 20.1391 3.94898 18.4737 3.94898 16.672C3.94898 12.2328 7.56045 8.62123 11.9997 8.62123C14.1082 8.62123 16.1278 9.504 17.6863 11.1069C19.1888 12.6519 20.0505 14.6804 20.0505 16.672C20.0505 18.0357 19.8252 19.8888 18.8462 21.4819H20.2502C20.9278 20.118 21.2806 18.4873 21.2806 16.672C21.2806 14.3629 20.2921 12.0219 18.5683 10.2492C16.7762 8.40616 14.4434 7.39114 11.9997 7.39114Z"
        fill="#282827" />
    <path
        d="M10.2497 19.1876C10.2497 19.6471 9.87735 20.0195 9.41784 20.0195C8.95833 20.0195 8.58594 19.6471 8.58594 19.1876C8.58594 18.7281 8.95833 18.3557 9.41784 18.3557C9.87735 18.3557 10.2497 18.7281 10.2497 19.1876Z"
        fill="#282827" />
    <path
        d="M15.4128 19.1876C15.4128 19.6471 15.0404 20.0195 14.5809 20.0195C14.1214 20.0195 13.749 19.6471 13.749 19.1876C13.749 18.7281 14.1214 18.3557 14.5809 18.3557C15.0404 18.3557 15.4128 18.7281 15.4128 19.1876Z"
        fill="#282827" />
    <path
        d="M2.54492 18.8574L7.16267 13.96L6.05121 17.4445C9.65637 14.821 13.4411 15.2358 16.106 16.0184C18.9346 16.8489 20.9149 14.3507 18.9763 11.6858C18.0551 10.4193 16.7915 9.36775 15.3562 8.73C11.5917 7.05773 7.80687 8.03278 5.2537 10.6119C2.54908 13.344 2.54492 16.3743 2.54492 18.8574Z"
        fill="#FF6F21" />
    <path
        d="M11.5658 8.51801C11.0298 8.51801 10.4975 8.57146 9.97434 8.67906C8.37888 9.00718 6.89762 9.82519 5.69059 11.0445C3.68563 13.0698 3.26896 15.2436 3.18242 17.2844L8.57031 11.5701L7.14392 16.0417C9.82447 14.6402 12.8894 14.4329 16.279 15.4281C17.3576 15.7448 18.3352 15.5048 18.8306 14.8019C19.3394 14.0796 19.2078 13.0499 18.4787 12.0475C17.6073 10.8497 16.4096 9.87118 15.1062 9.29203C13.9502 8.7785 12.7492 8.51801 11.5658 8.51801ZM1.92969 20.4062V18.8574C1.92969 16.2901 1.92969 13.0952 4.81628 10.1791C6.19467 8.78681 7.89258 7.85146 9.72646 7.47419C11.6571 7.07701 13.69 7.31687 15.6057 8.16783C17.1034 8.83324 18.4771 9.95414 19.4735 11.3238C20.5113 12.7506 20.6503 14.3548 19.8361 15.5102C19.0402 16.64 17.5082 17.0709 15.9324 16.6084C12.2981 15.5412 9.09516 15.9898 6.41289 17.9418L4.89408 19.0469L5.7545 16.3496L1.92969 20.4062Z"
        fill="#282827" />
    <path
        d="M14.2119 7.54461C13.6644 8.97114 12.0769 9.76765 10.6059 9.35356C8.94869 8.88689 8.07365 7.55507 8.28371 5.86575C8.49276 4.18575 9.62799 2.7128 10.9366 0.897109C9.86169 3.1852 10.7748 3.39956 11.0637 3.38809C11.3491 3.37677 11.7658 3.42549 12.3588 3.62222C13.9746 4.15853 14.8288 5.93725 14.2119 7.54461Z"
        fill="#FF6F21" />
    <path
        d="M9.96908 3.3491C9.40139 4.23918 9.00277 5.0665 8.89388 5.94167C8.72151 7.32765 9.42374 8.38179 10.7725 8.76149C11.9434 9.09119 13.2017 8.45988 13.6376 7.32436C13.8738 6.70852 13.8492 6.0424 13.5682 5.44863C13.287 4.85429 12.7886 4.41298 12.1649 4.20608C11.6176 4.02439 11.2768 3.99559 11.088 4.00276C10.664 4.01938 10.2727 3.82193 10.042 3.47404C10.0154 3.43392 9.991 3.39237 9.96908 3.3491ZM11.3986 10.0781C11.0797 10.0781 10.7574 10.0353 10.439 9.94559C9.48392 9.67664 8.72065 9.14506 8.23191 8.4083C7.7446 7.67383 7.55145 6.76842 7.6731 5.78979C7.88803 4.06222 8.95277 2.59041 10.1856 0.886197C10.2687 0.771284 10.3526 0.655224 10.4375 0.537588L11.493 1.15872C10.9721 2.26788 11.0318 2.67853 11.0592 2.77224C11.4783 2.75949 11.9806 2.84875 12.5523 3.03846C13.4982 3.35239 14.2538 4.02138 14.6801 4.9225C15.1062 5.82289 15.1438 6.83247 14.786 7.7651C14.2432 9.17916 12.8594 10.0781 11.3986 10.0781Z"
        fill="#282827" />
    <path
        d="M12.6572 12.9927C12.4419 12.9927 12.2401 12.897 12.104 12.7302L11.6902 12.2234C11.4504 11.9297 11.4847 11.4999 11.762 11.2475C11.6724 11.2036 11.5923 11.1404 11.5273 11.0608L11.4329 10.9452C11.1844 10.641 11.2298 10.1915 11.5339 9.94317L11.5934 9.8946L10.9873 9.15067C10.7177 8.82054 10.7672 8.33209 11.0976 8.06214C11.2361 7.94924 11.4098 7.88748 11.5872 7.88748C11.8202 7.88748 12.0387 7.99093 12.1864 8.17147L14.7717 11.3534C15.0408 11.6831 14.9913 12.1715 14.6609 12.4415C14.5698 12.516 14.4606 12.5696 14.3457 12.5961C14.2887 12.6092 14.2299 12.6158 14.1713 12.6158C13.9699 12.6158 13.7794 12.5386 13.636 12.4012L13.1086 12.8318C12.9815 12.9355 12.8211 12.9927 12.6572 12.9927Z"
        fill="#3DCC8E" />
    <path
        d="M12.5767 7.85238C12.3329 7.55464 11.9726 7.38399 11.5881 7.38399C11.2953 7.38399 11.0087 7.48601 10.7813 7.67113C10.2348 8.1176 10.1534 8.92357 10.5986 9.46891L10.9353 9.88228C10.688 10.3075 10.7148 10.86 11.044 11.2631L11.1073 11.3408C10.9584 11.7335 11.017 12.1933 11.3013 12.5413L11.7151 13.0483C11.9471 13.3325 12.2908 13.4956 12.658 13.4956C12.9377 13.4956 13.2111 13.3983 13.4278 13.2214L13.6756 13.019C13.8307 13.0842 13.999 13.1189 14.1723 13.1189C14.2688 13.1189 14.3656 13.1079 14.4597 13.0861C14.6494 13.0424 14.8294 12.9541 14.9802 12.8309C15.5254 12.3854 15.6068 11.5795 15.1618 11.0341L12.5791 7.85539L12.5767 7.85238ZM11.5881 8.39041C11.6665 8.39041 11.7443 8.42451 11.7979 8.49014L14.382 11.6705C14.4766 11.7864 14.4593 11.9569 14.3435 12.0515C14.3101 12.0787 14.2724 12.0964 14.2333 12.1055C14.2132 12.1102 14.1928 12.1125 14.1723 12.1125C14.0937 12.1125 14.0159 12.0785 13.9624 12.0129L13.705 11.6958L12.7913 12.4416C12.7522 12.4737 12.705 12.4892 12.658 12.4892C12.597 12.4892 12.5364 12.4627 12.4947 12.4117L12.0809 11.9049C12.0081 11.8157 12.0214 11.6845 12.1106 11.6117L13.0287 10.8622L12.6536 10.3997L12.1994 10.7708C12.1621 10.801 12.1174 10.8158 12.073 10.8158C12.0151 10.8158 11.9577 10.7907 11.9181 10.7424L11.8236 10.6265C11.7506 10.5372 11.7638 10.4057 11.8531 10.3328L12.302 9.96624L11.3782 8.83244C11.2837 8.71667 11.301 8.54616 11.4168 8.45159C11.4674 8.41047 11.528 8.39041 11.5881 8.39041Z"
        fill="#282828" />
</svg>
